X:125
T:Brick Makers. VWMLa.125
%%VWML:Anon2-3049-p71-0
F:http://www.vwml.org/record/Anon2/3049/p71
S:Anon. MS, late 18thC, Vaughan Williams Mem. Library
O:England;Yorkshire
Z:vmp/efdss.Simon Wilson. Reviewed PJH 2008.
M:2/4
L:1/8
Q:1/4=160
K:Bb
(B/c/)|(dB).B.d|(cA).A.c|BGGB|\
AFED|G2AB|cAGF|G2GG|G2:|
|:A2|(Bb).b.a|(ag).g.f|f=efg|f3A|\
B2cd|eddg|fdcB|BAGF|
BAAc|cBBd|dcce|GFED|\
G2AB|cAGF|G2GG|G2:|
T:Lockit. VWMLa.126, The
R:Country-dance
S:Anon. MS, late 18thC, Vaughan Williams Mem. Library
O:England;Yorkshire
Z:vmp/efdss.Simon Wilson. Reviewed PJH 2008.
M:2/4
L:1/8
Q:1/4=140
K:D
g|f2(ed/c/)|dA2G|F2(E/F/G/E/)|FD2g|\
f2ed|ea2d|c2B2|A3:|
|:g|f2a2|gb2g|e2g2|fa2d|\
c2B2|Ag2e|(f/g/a) ec|d3:|
